src/lib/packages/icons/src/assets/line/user.svg

<svg width="24" height="24" viewBox="0 0 24 24" fill="none" xmlns="http://www.w3.org/2000/svg">
<path d="M12.009 10.75C9.66503 10.75 7.75903 8.843 7.75903 6.5C7.75903 4.157 9.66503 2.25 12.009 2.25C14.353 2.25 16.259 4.157 16.259 6.5C16.259 8.843 14.353 10.75 12.009 10.75ZM12.009 3.75C10.492 3.75 9.25903 4.983 9.25903 6.5C9.25903 8.017 10.492 9.25 12.009 9.25C13.526 9.25 14.759 8.017 14.759 6.5C14.759 4.983 13.525 3.75 12.009 3.75ZM15.9969 21.75H8.00305C5.58305 21.75 4.25 20.425 4.25 18.019C4.25 15.358 5.756 12.25 10 12.25H14C18.244 12.25 19.75 15.357 19.75 18.019C19.75 20.425 18.4169 21.75 15.9969 21.75ZM10 13.75C6.057 13.75 5.75 17.017 5.75 18.019C5.75 19.583 6.42405 20.25 8.00305 20.25H15.9969C17.5759 20.25 18.25 19.583 18.25 18.019C18.25 17.018 17.943 13.75 14 13.75H10Z" fill="currentColor"/>
</svg>

<svg xmlns="http://www.w3.org/2000/svg" width="24" height="24" fill="none"><path fill="currentColor" d="M12.009 10.75a4.255 4.255 0 0 1-4.25-4.25 4.255 4.255 0 0 1 4.25-4.25 4.255 4.255 0 0 1 4.25 4.25 4.255 4.255 0 0 1-4.25 4.25Zm0-7a2.752 2.752 0 0 0-2.75 2.75 2.752 2.752 0 0 0 2.75 2.75 2.752 2.752 0 0 0 2.75-2.75 2.753 2.753 0 0 0-2.75-2.75Zm3.988 18H8.003c-2.42 0-3.753-1.325-3.753-3.731 0-2.661 1.506-5.769 5.75-5.769h4c4.244 0 5.75 3.107 5.75 5.769 0 2.406-1.333 3.731-3.753 3.731Zm-5.997-8c-3.943 0-4.25 3.267-4.25 4.269 0 1.564.674 2.231 2.253 2.231h7.994c1.579 0 2.253-.667 2.253-2.231 0-1.001-.307-4.269-4.25-4.269h-4Z"/></svg>
